packages/core/src/svgs/lode.svg

<svg width="24" height="24" viewBox="0 0 24 24" fill="none" xmlns="http://www.w3.org/2000/svg">
<g clip-path="url(#clip0_31_13332)">
<path d="M0 0H24V24H0V0Z" fill="#121826"/>
<path d="M12.0214 6.37707C12.0085 6.32564 11.9956 6.32564 11.9785 6.37707C11.7878 7.06064 11.5083 7.71623 11.1471 8.32707C11.1429 8.32874 11.1383 8.32874 11.1342 8.32707L10.7528 8.03564C10.7528 8.03564 10.7442 8.03136 10.7442 8.02279V8.00993C11.3953 6.8827 11.7396 5.60453 11.7428 4.30279C11.7428 4.28993 11.7471 4.28564 11.7599 4.28564H12.2399C12.2485 4.28564 12.2571 4.28993 12.2571 4.30279C12.2614 5.6185 12.5956 6.85279 13.2556 8.00993C13.2599 8.0185 13.2556 8.02707 13.2514 8.03564L12.8614 8.33136C12.8528 8.33564 12.8442 8.33136 12.8399 8.32707C12.4714 7.68422 12.1971 7.03707 12.0214 6.37707ZM6.36422 12.0171C7.84468 12.4209 9.1777 13.2421 10.2042 14.3828V14.3871L9.80993 14.6871H9.7885C9.09045 13.921 8.24087 13.3083 7.2936 12.8878C6.34634 12.4673 5.32205 12.2481 4.28564 12.2442V11.7514C4.28564 11.7471 4.28564 11.7428 4.2985 11.7428C5.33267 11.7404 6.35506 11.5231 7.30086 11.1048C8.24665 10.6865 9.09523 10.0763 9.79279 9.31279C9.79279 9.3085 9.80136 9.30422 9.80993 9.31279L10.1999 9.61279C9.17599 10.7533 7.84618 11.5758 6.3685 11.9828C6.32564 11.9914 6.32564 12.0042 6.3685 12.0171H6.36422ZM17.6314 11.9828C17.6742 11.9914 17.6742 12.0042 17.6314 12.0171C16.1525 12.4219 14.8212 13.243 13.7956 14.3828C13.9235 14.4988 14.0644 14.5995 14.2156 14.6828C14.9128 13.9213 15.7602 13.3127 16.7043 12.8952C17.6485 12.4776 18.669 12.2604 19.7014 12.2571C19.7099 12.2571 19.7142 12.2485 19.7142 12.2399V11.7514C19.7142 11.7471 19.7142 11.7428 19.7056 11.7428C18.6714 11.7409 17.6488 11.5239 16.703 11.1056C15.7571 10.6872 14.9086 10.0767 14.2114 9.31279C14.2028 9.30422 14.1985 9.30422 14.1899 9.31279L13.7999 9.61279C13.798 9.61365 13.7965 9.61517 13.7956 9.61707V9.62564C14.8223 10.7623 16.1535 11.5804 17.6314 11.9828ZM16.3028 7.5985C16.3371 7.58564 16.3756 7.57707 16.4142 7.57279C16.4356 7.5685 16.4442 7.57707 16.4356 7.5985C16.1875 8.33513 15.84 9.03444 15.4028 9.67707C15.3963 9.68564 15.3932 9.69635 15.3942 9.70707C15.3942 9.71993 15.4028 9.7285 15.4114 9.73279L15.8014 10.0242C15.8064 10.0277 15.8124 10.0296 15.8185 10.0296C15.8246 10.0296 15.8306 10.0277 15.8356 10.0242L15.8442 10.0199C16.4699 9.08564 17.0271 8.00136 17.1299 6.90422C17.1303 6.90022 17.1297 6.89621 17.1282 6.89249C17.1267 6.88877 17.1244 6.88544 17.1214 6.88279C17.1187 6.87979 17.1154 6.87745 17.1117 6.87596C17.1079 6.87447 17.1039 6.87388 17.0999 6.87422C16.6714 6.9085 16.2299 7.01993 15.7756 7.19993C14.3785 7.75707 13.1228 8.69136 12.0214 9.75422C12.0185 9.75699 12.0152 9.75917 12.0115 9.76064C12.0078 9.76212 12.0039 9.76284 11.9999 9.76279C11.9914 9.76279 11.9828 9.76279 11.9785 9.75422C10.8937 8.65637 9.60345 7.78264 8.18136 7.18279C7.7651 7.02112 7.32778 6.92009 6.88279 6.88279C6.87979 6.88544 6.87745 6.88877 6.87596 6.89249C6.87447 6.89621 6.87388 6.90022 6.87422 6.90422C6.90422 7.2685 6.97707 7.61136 7.09707 7.95422C7.36409 8.69075 7.72569 9.38945 8.17279 10.0328C8.17549 10.034 8.17841 10.0346 8.18136 10.0346C8.18431 10.0346 8.18723 10.034 8.18993 10.0328L8.59279 9.73279C8.60009 9.7276 8.60507 9.71977 8.60668 9.71096C8.60828 9.70215 8.60637 9.69307 8.60136 9.68564C8.15866 9.0348 7.80953 8.32501 7.56422 7.57707L7.57707 7.56422H7.58993C9.08993 8.06136 10.4614 9.04279 11.5885 10.1528V10.1614C11.5898 10.1655 11.5898 10.17 11.5885 10.1742V10.1828L10.1828 11.5885C10.18 11.5921 10.1764 11.595 10.1723 11.5969C10.1682 11.5989 10.1638 11.5999 10.1592 11.5999C10.1547 11.5999 10.1502 11.5989 10.1461 11.5969C10.142 11.595 10.1385 11.5921 10.1356 11.5885L9.56993 10.9714C9.56367 10.9655 9.55563 10.9619 9.54709 10.9611C9.53856 10.9604 9.53 10.9624 9.52279 10.9671L9.13279 11.2542C9.12923 11.2567 9.12624 11.2598 9.12402 11.2635C9.1218 11.2672 9.12041 11.2714 9.11993 11.2756C9.11987 11.2796 9.1206 11.2835 9.12207 11.2872C9.12354 11.2909 9.12573 11.2942 9.1285 11.2971L9.74136 11.9785C9.74657 11.9853 9.7494 11.9935 9.7494 12.0021C9.7494 12.0106 9.74657 12.0189 9.74136 12.0256L9.1285 12.7028C9.11136 12.7199 9.11564 12.7371 9.13279 12.7499L9.52279 13.0371C9.53993 13.0499 9.55279 13.0499 9.56564 13.0371L10.1442 12.4071C10.1571 12.3942 10.1656 12.3942 10.1785 12.4071L11.5842 13.8128C11.5971 13.8299 11.5971 13.8428 11.5842 13.8556C10.4614 14.9614 9.09422 15.9385 7.58993 16.4399C7.5858 16.443 7.5807 16.4445 7.57555 16.4442C7.57041 16.4438 7.56557 16.4416 7.56192 16.4379C7.55827 16.4343 7.55606 16.4295 7.5557 16.4243C7.55533 16.4192 7.55684 16.4141 7.55993 16.4099C7.80834 15.6604 8.16032 14.9492 8.60564 14.2971C8.605 14.2917 8.60311 14.2866 8.60014 14.2822C8.59716 14.2777 8.59317 14.274 8.5885 14.2714L8.18993 13.9714C8.18723 13.9702 8.18431 13.9696 8.18136 13.9696C8.17841 13.9696 8.17549 13.9702 8.17279 13.9714C8.16946 13.9714 8.16618 13.9721 8.1632 13.9736C8.16023 13.9751 8.15764 13.9773 8.15564 13.9799C7.70818 14.6301 7.34796 15.3361 7.08422 16.0799C6.97071 16.4095 6.90012 16.7523 6.87422 17.0999C6.87422 17.1214 6.88279 17.1299 6.90422 17.1299C7.36707 17.0871 7.83422 16.9671 8.30136 16.7742C9.68261 16.1683 10.9374 15.3076 11.9999 14.2371C12.0085 14.2371 12.0171 14.2371 12.0214 14.2456C13.1785 15.3728 14.5671 16.3885 16.0585 16.9028C16.4044 17.0219 16.7648 17.094 17.1299 17.1171C17.0356 16.0156 16.4656 14.8928 15.8442 13.9842C15.8356 13.9671 15.8185 13.9628 15.8014 13.9756L15.4071 14.2756C15.4002 14.2809 15.3957 14.2886 15.3942 14.2971L15.3985 14.3228C15.8415 14.9704 16.1907 15.6774 16.4356 16.4228C16.4337 16.4277 16.43 16.4318 16.4253 16.4342C16.4205 16.4365 16.415 16.4371 16.4099 16.4356C14.9142 15.9556 13.5514 14.9614 12.4156 13.8599C12.4028 13.8428 12.3985 13.8299 12.4156 13.8171L13.8128 12.4156C13.8163 12.4125 13.8203 12.4102 13.8248 12.4087C13.8292 12.4072 13.8339 12.4067 13.8385 12.4071C13.8431 12.4067 13.8478 12.4072 13.8522 12.4087C13.8567 12.4102 13.8607 12.4125 13.8642 12.4156L14.4385 13.0414L14.4514 13.0499L14.4685 13.0456L14.8671 12.7456C14.8709 12.7437 14.8741 12.7408 14.8765 12.7373C14.8789 12.7337 14.8804 12.7296 14.8808 12.7254C14.8812 12.7211 14.8806 12.7168 14.879 12.7129C14.8773 12.7089 14.8747 12.7055 14.8714 12.7028L14.2542 12.0256C14.2414 12.0085 14.2414 11.9956 14.2542 11.9828L14.8714 11.2971C14.8744 11.2944 14.8767 11.2911 14.8782 11.2874C14.8797 11.2837 14.8803 11.2796 14.8799 11.2756C14.8803 11.2717 14.8797 11.2676 14.8782 11.2639C14.8767 11.2602 14.8744 11.2569 14.8714 11.2542L14.4642 10.9542C14.462 10.9525 14.4594 10.9513 14.4567 10.9506C14.454 10.9499 14.4511 10.9497 14.4483 10.9501C14.4455 10.9505 14.4429 10.9515 14.4404 10.9529C14.438 10.9544 14.4359 10.9563 14.4342 10.9585L13.8556 11.6014C13.853 11.6029 13.8501 11.6037 13.8471 11.6037C13.8441 11.6037 13.8411 11.6029 13.8385 11.6014C13.8344 11.603 13.8298 11.603 13.8256 11.6014L12.4114 10.1871C12.4071 10.1824 12.4048 10.1763 12.4048 10.1699C12.4048 10.1636 12.4071 10.1575 12.4114 10.1528C13.5214 9.06422 14.8456 8.1085 16.3028 7.5985ZM10.5728 11.9828L11.9828 10.5728C11.9882 10.5683 11.995 10.5658 12.0021 10.5658C12.0091 10.5658 12.016 10.5683 12.0214 10.5728L13.4271 11.9828C13.4399 11.9914 13.4399 12.0085 13.4271 12.0214L12.0214 13.4271C12.0186 13.4299 12.0152 13.4322 12.0116 13.4337C12.0079 13.4353 12.0039 13.4361 11.9999 13.4361C11.9959 13.4361 11.992 13.4353 11.9883 13.4337C11.9846 13.4322 11.9813 13.4299 11.9785 13.4271L10.5728 12.0214C10.5699 12.0186 10.5677 12.0152 10.5661 12.0116C10.5646 12.0079 10.5638 12.0039 10.5638 11.9999C10.5638 11.9959 10.5646 11.992 10.5661 11.9883C10.5677 11.9846 10.5699 11.9813 10.5728 11.9785V11.9828ZM12.8399 15.6814C12.4815 16.289 12.2061 16.9419 12.0214 17.6228C12.0085 17.6742 11.9956 17.6742 11.9785 17.6228C11.79 16.9419 11.5149 16.288 11.1599 15.6771C11.1556 15.6685 11.1471 15.6642 11.1428 15.6728L10.7485 15.9642L10.7442 15.9771V15.9899C11.4006 17.1216 11.748 18.406 11.7514 19.7142H12.2442C12.2528 19.7142 12.2571 19.7142 12.2571 19.7014C12.2557 18.3922 12.6002 17.106 13.2556 15.9728L13.2471 15.9642L12.8614 15.6771C12.8585 15.6763 12.8556 15.6763 12.8528 15.6771C12.8505 15.6769 12.8481 15.6772 12.8459 15.6779C12.8437 15.6786 12.8417 15.6798 12.8399 15.6814Z" fill="#E5D345"/>
</g>
<defs>
<clipPath id="clip0_31_13332">
<rect width="24" height="24" fill="white"/>
</clipPath>
</defs>
</svg>

<svg xmlns="http://www.w3.org/2000/svg" width="24" height="24" fill="none" viewBox="0 0 24 24"><g clip-path="url(#a)"><path fill="#121826" d="M0 0h24v24H0z"/><path fill="#E5D345" d="M12.021 6.377q-.018-.077-.043 0c-.19.684-.47 1.34-.83 1.95a.02.02 0 0 1-.014 0l-.381-.291s-.009-.005-.009-.013V8.01a7.45 7.45 0 0 0 .999-3.707q-.001-.018.017-.017h.48c.008 0 .017.004.017.017a7.4 7.4 0 0 0 .999 3.707q.004.012-.005.026l-.39.295c-.008.005-.017 0-.021-.004a8.1 8.1 0 0 1-.819-1.95m-5.657 5.64a8 8 0 0 1 3.84 2.366v.004l-.394.3h-.021a7.48 7.48 0 0 0-5.503-2.443v-.493c0-.004 0-.008.013-.008a7.47 7.47 0 0 0 5.494-2.43c0-.005.008-.009.017 0l.39.3a8 8 0 0 1-3.831 2.37q-.064.013 0 .034zm11.267-.034q.064.013 0 .034a8 8 0 0 0-3.835 2.366q.192.175.42.3a7.47 7.47 0 0 1 5.485-2.426q.013-.002.013-.017v-.489c0-.004 0-.008-.008-.008a7.46 7.46 0 0 1-5.495-2.43q-.01-.014-.021 0l-.39.3-.004.004v.009a8 8 0 0 0 3.835 2.357m-1.328-4.385a.5.5 0 0 1 .111-.025q.034-.007.022.025a8.5 8.5 0 0 1-1.033 2.08.04.04 0 0 0-.009.03c0 .012.009.02.017.025l.39.291a.03.03 0 0 0 .035 0l.008-.004C16.47 9.086 17.027 8 17.13 6.904q0-.006-.002-.012l-.007-.01a.03.03 0 0 0-.021-.008q-.643.054-1.324.326c-1.397.557-2.653 1.491-3.755 2.554a.03.03 0 0 1-.021.009c-.009 0-.017 0-.021-.009A11.8 11.8 0 0 0 8.18 7.183a4.7 4.7 0 0 0-1.298-.3.03.03 0 0 0-.009.021c.03.365.103.707.223 1.05a9 9 0 0 0 1.076 2.079.02.02 0 0 0 .017 0l.403-.3a.034.034 0 0 0 .008-.047 8.4 8.4 0 0 1-1.037-2.109l.013-.013h.013c1.5.497 2.871 1.479 3.999 2.589v.008a.02.02 0 0 1 0 .013v.009l-1.406 1.406-.01.008a.03.03 0 0 1-.027 0l-.01-.008-.566-.618a.04.04 0 0 0-.047-.004l-.39.287a.03.03 0 0 0-.013.022.03.03 0 0 0 .009.021l.612.681a.04.04 0 0 1 0 .048l-.612.677c-.018.017-.013.034.004.047l.39.287q.024.02.043 0l.578-.63q.018-.02.034 0l1.406 1.406q.02.024 0 .043c-1.123 1.105-2.49 2.082-3.994 2.584a.02.02 0 0 1-.014.004.021.021 0 0 1-.016-.034c.248-.75.6-1.46 1.046-2.113a.03.03 0 0 0-.018-.026l-.398-.3a.02.02 0 0 0-.017 0 .02.02 0 0 0-.017.009 9 9 0 0 0-1.072 2.1q-.17.497-.21 1.02 0 .03.03.03.696-.066 1.397-.356A12 12 0 0 0 12 14.237c.008 0 .017 0 .021.009 1.157 1.127 2.546 2.143 4.037 2.657.346.119.707.191 1.072.214-.094-1.101-.664-2.224-1.286-3.133-.008-.017-.025-.021-.043-.008l-.394.3a.04.04 0 0 0-.013.021l.005.026a8.3 8.3 0 0 1 1.037 2.1.02.02 0 0 1-.01.011.02.02 0 0 1-.016.002c-1.496-.48-2.859-1.475-3.994-2.576-.013-.017-.018-.03 0-.043l1.397-1.401a.03.03 0 0 1 .025-.009.03.03 0 0 1 .026.009l.574.625.013.009.018-.004.398-.3a.03.03 0 0 0 .014-.02q0-.008-.002-.013l-.008-.01-.617-.677q-.02-.025 0-.043l.617-.686.007-.01.002-.011q0-.006-.002-.012l-.007-.01-.407-.3-.007-.003a.02.02 0 0 0-.017.002l-.006.006-.578.642a.02.02 0 0 1-.018 0 .02.02 0 0 1-.012 0l-1.415-1.414a.03.03 0 0 1-.006-.017q0-.01.006-.017c1.11-1.089 2.435-2.045 3.892-2.555m-5.73 4.385 1.41-1.41a.03.03 0 0 1 .038 0l1.406 1.41c.013.008.013.025 0 .038l-1.406 1.406a.03.03 0 0 1-.021.01l-.012-.003-.01-.007-1.405-1.406-.007-.01a.03.03 0 0 1 0-.023l.007-.01zm2.267 3.698a7.9 7.9 0 0 0-.819 1.942q-.018.076-.043 0a8.3 8.3 0 0 0-.818-1.946c-.004-.008-.013-.013-.017-.004l-.395.291-.004.013v.013a7.46 7.46 0 0 1 1.007 3.724h.493c.009 0 .013 0 .013-.013a7.43 7.43 0 0 1 .999-3.728l-.009-.009-.386-.287h-.015z"/></g><defs><clipPath id="a"><path fill="#fff" d="M0 0h24v24H0z"/></clipPath></defs></svg>
